X: 953
T: Ganivelle
R: Schottische
C: Frederic Paris
M: 2/2
L: 1/8
Q: 160
K: G
|:GA|"G"B2d2 "C"A2GA|"G"B2G2 G2AB|"Am"cBcd cBAG|"D"A3BA2 GA|"G"B2d2 "C"A2GA|"G"B2G2 G2AB|
"C"cB cd "(Am7)"ed cB|"D7"A8:|||: d2|"C"e3d c2Bc|"G"d2G2 G2 d2|"C"e3d c2Bc|
"G"d2g2d2d2|"C"e3d c2Bc|"G"d2G2G2AB|"Am"cBcd cBAG|"D"A6:|]

%%newpage
%%textfont * 14
%%begintext justify
%%Schottiches
%%endtext
